build/img/icon-home.svg

<svg width="14" height="12" viewBox="0 0 14 12" fill="none" xmlns="http://www.w3.org/2000/svg">
<path d="M7.00008 2.72327L2.00705 6.8395C2.00705 6.84531 2.00559 6.85385 2.00267 6.8655C1.99981 6.87706 1.99829 6.88546 1.99829 6.89142V11.0595C1.99829 11.21 2.05331 11.3405 2.16332 11.4503C2.2733 11.5602 2.40354 11.6155 2.55407 11.6155H5.88847V8.28087H8.11172V11.6156H11.4461C11.5966 11.6156 11.727 11.5604 11.8368 11.4503C11.9468 11.3406 12.0021 11.2101 12.0021 11.0595V6.89142C12.0021 6.8683 11.9989 6.85084 11.9933 6.8395L7.00008 2.72327Z" fill="#00B200"/>
<path d="M13.9034 5.90165L12.0018 4.32122V0.778243C12.0018 0.697247 11.9758 0.630638 11.9235 0.578507C11.8717 0.526436 11.8051 0.5004 11.7239 0.5004H10.0567C9.97558 0.5004 9.909 0.526436 9.85684 0.578507C9.8048 0.630638 9.7788 0.697278 9.7788 0.778243V2.47155L7.66002 0.700015C7.47498 0.54949 7.25495 0.474243 7.0002 0.474243C6.74547 0.474243 6.52548 0.54949 6.34025 0.700015L0.0964936 5.90165C0.0386137 5.94788 0.00689076 6.01011 0.000990238 6.08828C-0.00487987 6.16639 0.0153462 6.23461 0.0617291 6.29246L0.600106 6.93507C0.646489 6.98714 0.707198 7.01899 0.782475 7.03063C0.851973 7.03647 0.921472 7.01616 0.99097 6.96986L7.00002 1.9592L13.0091 6.96984C13.0555 7.01023 13.1162 7.03039 13.1915 7.03039H13.2176C13.2927 7.01896 13.3533 6.9869 13.4 6.93495L13.9384 6.29243C13.9847 6.23446 14.005 6.16636 13.9989 6.08816C13.993 6.0102 13.9612 5.94798 13.9034 5.90165Z" fill="#00B200"/>
</svg>

<svg width="14" height="12" fill="none" xmlns="http://www.w3.org/2000/svg"><path d="M7 2.723L2.007 6.84a.118.118 0 01-.004.026.119.119 0 00-.005.025v4.168c0 .151.055.282.165.391.11.11.24.166.391.166h3.334V8.28h2.224v3.335h3.334c.15 0 .281-.056.39-.166.11-.11.166-.24.166-.39V6.89a.122.122 0 00-.009-.051L7 2.723z" fill="#00B200"/><path d="M13.903 5.902l-1.901-1.58V.777a.27.27 0 00-.079-.2.27.27 0 00-.2-.078h-1.666a.27.27 0 00-.2.079.27.27 0 00-.078.2v1.693L7.66.7A1.013 1.013 0 007 .474 1.01 1.01 0 006.34.7L.096 5.902a.252.252 0 00-.095.186.281.281 0 00.06.204l.54.643a.296.296 0 00.181.096.323.323 0 00.209-.061L7 1.96l6.01 5.01c.046.04.106.06.181.06h.027a.297.297 0 00.182-.095l.538-.643a.28.28 0 00.06-.204.253.253 0 00-.095-.186z" fill="#00B200"/></svg>
